X: 14656
T: Gan Ainm
R: reel
M: 4/4
K: Adorian
B|A3B GABG|A3B e2dB|A4 GABd|egdg egdB|
A3B GABG|A3B e2dB|A4 GABd|egdg egdg||
ea~a2 gabg|ea~a2 g2Bd|ea~a2 gabg|egdg egd2|
ea~a2 gabg|ea~a2 g2Bd|ea~a2 gabg|egdg egdB||

